svg/gigaset.svg

<?xml version="1.0" encoding="UTF-8" standalone="no"?>
<!DOCTYPE svg PUBLIC "-//W3C//DTD SVG 1.0//EN" "http://www.w3.org/TR/2001/REC-SVG-20010904/DTD/svg10.dtd">
<!-- Created with Inkscape (http://www.inkscape.org/) by Marsupilami -->
<svg
   xmlns:svg="http://www.w3.org/2000/svg"
   xmlns="http://www.w3.org/2000/svg"
   xmlns:xlink="http://www.w3.org/1999/xlink"
   version="1.0"
   width="1024"
   height="321"
   viewBox="-2.70043944 -2.70043944 304.63067888 95.41552688"
   id="svg3430">
  <defs
     id="defs3432">
    <linearGradient
       id="linearGradient4371">
      <stop
         id="stop4373"
         style="stop-color:#ec7504;stop-opacity:1"
         offset="0" />
      <stop
         id="stop4403"
         style="stop-color:#ed7a04;stop-opacity:1"
         offset="0.22279584" />
      <stop
         id="stop4401"
         style="stop-color:#ee7c03;stop-opacity:1"
         offset="0.31867433" />
      <stop
         id="stop4379"
         style="stop-color:#f18d01;stop-opacity:1"
         offset="0.75993007" />
      <stop
         id="stop4375"
         style="stop-color:#f29400;stop-opacity:1"
         offset="1" />
    </linearGradient>
    <linearGradient
       x1="288.13989"
       y1="-0.0030897425"
       x2="288.13989"
       y2="90.014648"
       id="linearGradient4377"
       xlink:href="#linearGradient4371"
       gradientUnits="userSpaceOnUse" />
  </defs>
  <path
     d="M 0,34.90234 C 0,56.09375 14.0918,68.72558 32.3291,68.72558 C 46.14258,68.72558 54.70703,63.88672 56.29395,63.0957 L 56.29395,36.39648 C 56.29395,36.39648 56.29395,35.15625 55.07324,35.15625 L 38.16406,35.15625 C 38.16406,35.15625 37.75391,35.15625 37.49512,35.55176 C 36.54785,37.01172 33.17383,42.27051 32.89063,42.73437 C 32.5586,43.33008 33.03223,43.95508 33.58399,43.95508 L 45.4541,43.95508 L 45.4541,56.98242 C 44.94629,57.16308 41.01074,58.96484 34.1211,58.96484 C 19.91699,58.96484 11.62598,48.89648 11.62598,34.0039 C 11.62598,18.73047 21.68457,9.75586 34.30176,9.75586 C 42.24121,9.75586 47.5586,12.8125 49.41406,14.0332 C 50.14649,14.43848 50.52735,13.76953 50.52735,13.76953 L 54.64844,7.33398 C 54.64844,7.33398 55.0293,6.71875 54.42383,6.26953 C 52.39746,4.60937 45.43457,-5.6843419e-14 33.7207,-5.6843419e-14 C 14.88281,-5.6843419e-14 0,12.91015 0,34.90234 M 275.1416,6.80664 C 273.58399,6.80664 273.58399,8.16406 273.58399,8.16406 L 273.58399,20.05371 L 269.44336,20.05371 C 267.89063,20.05371 267.89063,21.40625 267.89063,21.40625 L 267.89063,27.34863 C 267.89063,28.71582 269.44336,28.71582 269.44336,28.71582 L 273.58399,28.71582 L 273.58399,50.00488 C 273.58399,56.09375 273.39844,60.73242 277.15332,64.47754 C 279.9707,67.27539 284.29688,68.43262 288.53028,68.43262 C 293.01758,68.43262 296.33789,67.24609 298.10547,66.40625 C 299.6582,65.74219 299.15039,64.50683 299.15039,64.50683 L 297.26563,59.35547 C 297.26563,59.35547 296.92871,58.20801 295.29297,58.76953 C 294.18457,59.10644 292.56836,59.48242 290.57129,59.48242 C 284.39453,59.48242 284.19922,55.22461 284.19922,50.96191 L 284.19922,28.71582 L 292.68067,28.71582 C 293.48145,28.71582 294.24317,27.34863 294.24317,27.34863 L 297.39258,21.40625 C 297.39258,21.40625 298.26172,20.05371 296.74805,20.05371 L 284.19922,20.05371 L 284.19922,8.16406 C 284.19922,8.16406 284.19922,6.80664 282.63672,6.80664 L 275.1416,6.80664 M 137.38281,22.76367 L 140.26367,28.16406 C 140.26367,28.16406 140.94238,29.69726 141.84082,29.2334 C 143.75,28.23242 148.5791,25.9668 153.87695,25.9668 C 158.25195,25.9668 160.19531,26.74316 161.54297,28.11035 C 162.80274,29.36523 163.10547,31.02539 163.10547,34.0332 L 163.10547,35.87402 L 161.34766,35.87402 C 154.7461,35.87402 134.66797,36.26465 134.66797,52.46582 C 134.66797,61.28418 140.58594,67.40234 149.89746,67.40234 C 157.66113,67.40234 163.18848,63.4375 163.87207,62.94433 L 163.87207,65.51758 C 163.87207,66.87988 164.93164,66.87988 165.44922,66.87988 L 173.31543,66.87988 L 173.31543,37.32422 C 173.31543,31.02539 173.18848,26.36719 169.50195,22.66601 C 166.11328,19.29199 161.85547,17.63183 154.7461,17.63183 C 144.25781,17.63183 138.1543,22.09473 137.38281,22.76367 M 144.25781,51.97754 C 144.25781,49.93652 144.84863,48.37402 146.11328,47.12402 C 148.82813,44.40918 154.15528,43.42773 160.88379,43.42773 L 163.10547,43.42773 L 163.10547,55.9668 C 162.31445,56.34765 158.1543,59.16015 152.62695,59.16015 C 148.05176,59.16015 144.25781,56.82617 144.25781,51.97754 M 220.38086,43.48144 C 220.38086,57.6709 228.76465,68.41308 243.83789,68.41308 C 252.75391,68.41308 259.02832,64.85351 260.98145,63.63281 C 261.52832,63.19336 261.16211,62.56836 261.16211,62.56836 C 261.16211,62.56836 258.0127,57.65625 257.66602,57.10937 C 257.29981,56.52832 256.80664,56.66992 256.56738,56.78711 C 254.30176,57.91015 250,59.75098 244.72656,59.75098 C 234.6875,59.75098 231.03028,52.24609 231.03028,46.43555 C 231.03028,46.43555 262.29492,46.4209 262.69531,46.43555 C 263.27637,46.43555 263.65235,45.97168 263.69629,45.70312 C 263.74024,44.88281 263.84766,43.75976 263.84766,42.58301 C 263.84766,27.20703 256.25488,17.74902 243.1543,17.74902 C 229.55078,17.74902 220.38086,28.39355 220.38086,43.48144 M 243.34961,26.03027 C 251.92871,26.03027 253.60352,34.19922 253.60352,38.34961 L 231.03028,38.34961 C 231.91406,31.04492 236.64063,26.03027 243.34961,26.03027 M 181.6211,32.13379 C 181.6211,40.90332 189.00879,44.07226 194.33594,46.33789 C 200.83496,49.09668 204.6875,50.37109 204.6875,54.12598 C 204.6875,57.47558 201.83106,60.03418 196.31836,60.03418 C 191.21582,60.03418 186.47461,57.8125 184.41406,56.69922 C 183.69141,56.34765 183.3252,56.98242 183.3252,56.98242 L 180.24903,62.76367 C 180.24903,62.76367 179.86328,63.2666 180.41504,63.80371 C 182.3291,65.05859 188.53028,68.51074 197.3877,68.51074 C 208.03223,68.51074 215.74219,62.89062 215.74219,53.4375 C 215.74219,43.95508 207.73926,40.90332 201.03028,38.1543 C 196.09375,36.08398 192.4707,34.60449 192.4707,31.14258 C 192.4707,28.39355 194.73145,25.71777 200.14649,25.71777 C 204.23828,25.71777 208.64258,27.60742 210.55176,28.57422 C 211.21094,28.86719 211.6211,28.23242 211.6211,28.23242 L 214.6875,22.72461 C 214.6875,22.72461 215.03906,22.06055 214.41406,21.66504 C 212.7002,20.55664 207.61231,17.74902 199.46778,17.74902 C 188.9209,17.74902 181.6211,23.4668 181.6211,32.13379 M 83.94043,43.58887 C 83.94043,56.09375 91.42578,67.24609 105.22949,67.24609 C 112.33399,67.24609 116.5625,64.28223 117.3584,63.88672 L 117.3584,67.14844 C 117.3584,71.88476 117.06055,75.61523 114.10645,78.17383 C 112.23633,79.76562 109.47754,80.94238 104.93653,80.94238 C 98.10059,80.94238 92.64649,77.70996 90.79102,76.51367 C 90.04395,76.06445 89.73633,76.76758 89.73633,76.76758 C 89.73633,76.76758 86.17676,82.30957 85.9668,82.64648 C 85.71289,83.13965 85.84961,83.4668 86.1084,83.68164 C 88.04688,85.28808 95.03906,90.01465 106.12305,90.01465 C 114.69727,90.01465 119.81934,87.3584 123.17383,84.00879 C 127.80274,79.28223 128.10059,74.24805 128.10059,66.95312 C 128.10059,66.95312 128.10059,23.42285 128.10059,23.04687 C 128.10059,22.68066 127.78809,22.4414 127.54883,22.31445 C 125.27344,21.2207 117.90039,17.75879 109.17481,17.75879 C 94.09668,17.75879 83.94043,29.0918 83.94043,43.58887 M 94.88281,43.08594 C 94.88281,32.93457 100.90332,26.63574 108.98926,26.63574 C 113.41797,26.63574 116.66992,28.11035 117.3584,28.40332 L 117.3584,55.20996 C 116.96289,55.53711 112.62695,58.47168 107.49512,58.47168 C 100.50781,58.47168 94.88281,52.76367 94.88281,43.08594 M 66.54785,19.12109 C 66.54785,19.12109 65.32227,19.12109 65.32227,20.34668 L 65.32227,65.67383 C 65.32227,65.67383 65.32227,66.87988 66.54785,66.87988 L 74.8291,66.87988 C 74.8291,66.87988 76.04981,66.87988 76.04981,65.67383 L 76.04981,20.43457 C 76.04981,20.43457 76.04981,19.12109 74.8291,19.12109 L 66.54785,19.12109 M 76.04981,65.67383 L 76.04981,65.74219 L 76.04981,65.67383"
     id="path3380"
     style="fill:url(#linearGradient4377);fill-opacity:1;stroke:none" />
</svg>
<!-- version: 20090314, original size: 299.2298 90.014648, border: 3% -->

<svg xmlns="http://www.w3.org/2000/svg" xmlns:xlink="http://www.w3.org/1999/xlink" width="1024" height="321" version="1.0" viewBox="-2.7 -2.7 304.631 95.416"><defs><linearGradient id="a"><stop offset="0" style="stop-color:#ec7504;stop-opacity:1"/><stop offset=".223" style="stop-color:#ed7a04;stop-opacity:1"/><stop offset=".319" style="stop-color:#ee7c03;stop-opacity:1"/><stop offset=".76" style="stop-color:#f18d01;stop-opacity:1"/><stop offset="1" style="stop-color:#f29400;stop-opacity:1"/></linearGradient><linearGradient xlink:href="#a" id="b" x1="288.14" x2="288.14" y1="-.003" y2="90.015" gradientUnits="userSpaceOnUse"/></defs><path d="M0 34.902c0 21.192 14.092 33.824 32.33 33.824 13.813 0 22.377-4.84 23.964-5.63v-26.7s0-1.24-1.22-1.24h-16.91s-.41 0-.669.396c-.947 1.46-4.321 6.719-4.604 7.182-.332.596.141 1.221.693 1.221h11.87v13.027c-.508.181-4.443 1.983-11.333 1.983-14.204 0-22.495-10.069-22.495-24.961 0-15.274 10.059-24.248 22.676-24.248 7.94 0 13.257 3.057 15.112 4.277.732.405 1.113-.263 1.113-.263l4.121-6.436s.381-.615-.224-1.064C52.397 4.61 45.434 0 33.72 0 14.883 0 0 12.91 0 34.902M275.142 6.807c-1.558 0-1.558 1.357-1.558 1.357v11.89h-4.14c-1.553 0-1.553 1.352-1.553 1.352v5.943c0 1.367 1.552 1.367 1.552 1.367h4.141v21.289c0 6.089-.186 10.727 3.57 14.473 2.817 2.797 7.143 3.955 11.376 3.955 4.488 0 7.808-1.187 9.575-2.027 1.553-.664 1.045-1.9 1.045-1.9l-1.884-5.15s-.337-1.148-1.973-.586a16.132 16.132 0 0 1-4.722.712c-6.176 0-6.372-4.257-6.372-8.52V28.716h8.482c.8 0 1.562-1.367 1.562-1.367l3.15-5.943s.869-1.352-.645-1.352H284.2V8.164s0-1.357-1.562-1.357zm-137.76 15.957 2.882 5.4s.678 1.533 1.577 1.07c1.909-1.002 6.738-3.267 12.036-3.267 4.375 0 6.318.776 7.666 2.143 1.26 1.255 1.562 2.915 1.562 5.923v1.841h-1.757c-6.602 0-26.68.39-26.68 16.592 0 8.818 5.918 14.936 15.23 14.936 7.763 0 13.29-3.965 13.974-4.458v2.574c0 1.362 1.06 1.362 1.577 1.362h7.866V37.324c0-6.299-.127-10.957-3.813-14.658-3.389-3.374-7.647-5.034-14.756-5.034-10.488 0-16.592 4.463-17.363 5.132m6.875 29.214c0-2.041.59-3.604 1.855-4.854 2.715-2.715 8.042-3.696 14.77-3.696h2.222v12.539c-.79.38-4.95 3.193-10.478 3.193-4.575 0-8.37-2.334-8.37-7.182m76.124-8.497c0 14.19 8.384 24.932 23.457 24.932 8.916 0 15.19-3.56 17.143-4.78.547-.44.181-1.065.181-1.065s-3.15-4.912-3.496-5.459c-.366-.58-.86-.44-1.099-.322-2.265 1.123-6.567 2.964-11.84 2.964-10.04 0-13.697-7.505-13.697-13.315 0 0 31.265-.015 31.665 0 .581 0 .957-.464 1.001-.733.044-.82.152-1.943.152-3.12 0-15.376-7.593-24.834-20.694-24.834-13.603 0-22.773 10.645-22.773 25.732m22.969-17.45c8.579 0 10.254 8.168 10.254 12.319H231.03c.884-7.305 5.61-12.32 12.32-12.32m-61.729 6.104c0 8.77 7.388 11.938 12.715 14.204 6.499 2.759 10.351 4.033 10.351 7.788 0 3.35-2.856 5.908-8.369 5.908-5.102 0-9.843-2.221-11.904-3.335-.723-.351-1.089.283-1.089.283l-3.076 5.782s-.386.503.166 1.04c1.914 1.255 8.115 4.707 16.973 4.707 10.644 0 18.354-5.62 18.354-15.073 0-9.483-8.003-12.535-14.712-15.284-4.936-2.07-8.56-3.55-8.56-7.011 0-2.75 2.261-5.425 7.676-5.425 4.092 0 8.497 1.89 10.406 2.856.659.293 1.07-.342 1.07-.342l3.065-5.507s.352-.664-.273-1.06c-1.714-1.108-6.802-3.916-14.946-3.916-10.547 0-17.847 5.718-17.847 14.385m-97.68 11.455c0 12.505 7.485 23.657 21.288 23.657 7.105 0 11.334-2.964 12.13-3.36v3.262c0 4.737-.298 8.467-3.253 11.026-1.87 1.592-4.628 2.768-9.17 2.768-6.835 0-12.29-3.232-14.145-4.428-.747-.45-1.055.254-1.055.254s-3.56 5.542-3.77 5.878c-.253.494-.116.82.142 1.036 1.939 1.606 8.931 6.333 20.015 6.333 8.574 0 13.696-2.657 17.05-6.006 4.63-4.727 4.928-9.76 4.928-17.056V23.047c0-.366-.313-.606-.552-.733-2.276-1.093-9.649-4.555-18.374-4.555-15.078 0-25.235 11.333-25.235 25.83m10.943-.503c0-10.151 6.02-16.45 14.106-16.45 4.429 0 7.68 1.474 8.37 1.767V55.21c-.396.327-4.732 3.262-9.864 3.262-6.987 0-12.612-5.708-12.612-15.386M66.548 19.12s-1.226 0-1.226 1.226v45.327s0 1.206 1.226 1.206h8.281s1.22 0 1.22-1.206v-45.24s0-1.313-1.22-1.313zm9.502 46.553v.068z" style="fill:url(#b);fill-opacity:1;stroke:none"/></svg>
